; generated by PrusaSlicer 2.6.1+win64 on 2023-11-19 at 14:17:56 UTC


;
;
; 

; external perimeters extrusion width = 0.45mm
; perimeters extrusion width = 0.45mm
; infill extrusion width = 0.45mm
; solid infill extrusion width = 0.45mm
; top infill extrusion width = 0.40mm
; first layer extrusion width = 0.42mm

M73 P0 R26
M73 Q0 S26
M201 X1000 Y1000 Z200 E5000 ; sets maximum accelerations, mm/sec^2
M203 X200 Y200 Z12 E120 ; sets maximum feedrates, mm / sec
M204 S1250 T1250 ; sets acceleration (S) and retract acceleration (R), mm/sec^2
M205 X8.00 Y8.00 Z0.40 E4.50 ; sets the jerk limits, mm/sec
M205 S0 T0 ; sets the minimum extruding and travel feed rate, mm/sec
;TYPE:Custom
M862.3 P "MK3S" ; printer model check
M862.1 P0.4 ; nozzle diameter check
M115 U3.13.1 ; tell printer latest fw version
G90 ; use absolute coordinates
M83 ; extruder relative mode
M104 S215 ; set extruder temp
M140 S60 ; set bed temp
M190 S60 ; wait for bed temp
M109 S215 ; wait for extruder temp
G28 W ; home all without mesh bed level
G80 ; mesh bed leveling

G1 Z0.2 F720
G1 Y-3 F1000 ; go outside print area
G92 E0
G1 X60 E9 F1000 ; intro line
G1 X100 E12.5 F1000 ; intro line

G92 E0
M221 S95

; Don't change E values below. Excessive value can damage the printer.
M907 E430 ; set extruder motor current
G21 ; set units to millimeters
G90 ; use absolute coordinates
M83 ; use relative distances for extrusion
M900 K0.05 ; Filament gcode LA 1.5
M900 K30 ; Filament gcode LA 1.0

M107
;LAYER_CHANGE
;Z:0.2
;HEIGHT:0.2
;BEFORE_LAYER_CHANGE
G92 E0.0
;0.2


G1 E-.8 F2100
G1 Z.4 F720
;AFTER_LAYER_CHANGE
;0.2
; printing object GLASS TEST id:0 copy 0
G1 X149.213 Y129.213 F10800
G1 Z.2 F720
G1 E.8 F2100
M204 S800
;TYPE:Perimeter
;WIDTH:0.419999
G1 F1200
G1 X100.787 Y129.213 E1.51836
G1 X100.787 Y80.787 E1.51836
G1 X149.213 Y80.787 E1.51836
G1 X149.213 Y129.153 E1.51648
M204 S1000
G1 X149.59 Y129.59 F10800
M204 S800
;TYPE:External perimeter
M73 P1 R26
M73 Q1 S26
G1 F1200
G1 X100.41 Y129.59 E1.542
G1 X100.41 Y80.41 E1.542
G1 X149.59 Y80.41 E1.542
G1 X149.59 Y129.53 E1.54012
M204 S1000
G1 X149.204 Y129.486 F10800
;WIPE_START
G1 F8640
G1 X146.125 Y129.534 E-.8
;WIPE_END
G1 Z.6 F720
G1 X148.279 Y80.957 F10800
G1 Z.2 F720
G1 E.8 F2100
M204 S800
;TYPE:Solid infill
;WIDTH:0.421019
G1 F1200
G1 X148.874 Y81.552 E.02645
G1 X148.874 Y82.086 E.01679
G1 X147.914 Y81.126 E.04268
G1 X147.379 Y81.126 E.01682
G1 X148.874 Y82.621 E.06647
G1 X148.874 Y83.156 E.01682
G1 X146.844 Y81.126 E.09026
G1 X146.31 Y81.126 E.01679
G1 X148.874 Y83.69 E.114
G1 X148.874 Y84.225 E.01682
G1 X145.775 Y81.126 E.13779
G1 X145.24 Y81.126 E.01682
G1 X148.874 Y84.76 E.16157
G1 X148.874 Y85.295 E.01682
G1 X144.706 Y81.126 E.18534
G1 X144.171 Y81.126 E.01682
G1 X148.874 Y85.829 E.2091
G1 X148.874 Y86.364 E.01682
G1 X143.636 Y81.126 E.23289
G1 X143.101 Y81.126 E.01682
G1 X148.874 Y86.899 E.25668
G1 X148.874 Y87.433 E.01679
G1 X142.567 Y81.126 E.28042
G1 X142.032 Y81.126 E.01682
G1 X148.874 Y87.968 E.30421
G1 X148.874 Y88.503 E.01682
G1 X141.497 Y81.126 E.32799
G1 X140.963 Y81.126 E.01679
M73 Q2 S26
G1 X148.874 Y89.037 E.35174
G1 X148.874 Y89.572 E.01682
M73 P2 R26
G1 X140.428 Y81.126 E.37552
G1 X139.893 Y81.126 E.01682
G1 X148.874 Y90.107 E.39931
G1 X148.874 Y90.642 E.01682
G1 X139.358 Y81.126 E.4231
G1 X138.824 Y81.126 E.01679
G1 X148.874 Y91.176 E.44684
G1 X148.874 Y91.711 E.01682
G1 X138.289 Y81.126 E.47063
G1 X137.754 Y81.126 E.01682
G1 X148.874 Y92.246 E.49441
G1 X148.874 Y92.78 E.01679
G1 X137.22 Y81.126 E.51815
G1 X136.685 Y81.126 E.01682
G1 X148.874 Y93.315 E.54194
G1 X148.874 Y93.85 E.01682
G1 X136.15 Y81.126 E.56573
G1 X135.615 Y81.126 E.01682
G1 X148.874 Y94.385 E.58952
G1 X148.874 Y94.919 E.01679
G1 X135.081 Y81.126 E.61326
G1 X134.546 Y81.126 E.01682
G1 X148.874 Y95.454 E.63705
G1 X148.874 Y95.989 E.01682
G1 X134.011 Y81.126 E.66083
G1 X133.477 Y81.126 E.01679
G1 X148.874 Y96.523 E.68457
G1 X148.874 Y97.058 E.01682
G1 X132.942 Y81.126 E.70836
G1 X132.407 Y81.126 E.01682
G1 X148.874 Y97.593 E.73215
G1 X148.874 Y98.128 E.01682
G1 X131.872 Y81.126 E.75594
G1 X131.338 Y81.126 E.01679
M73 P3 R26
M73 Q3 S26
G1 X148.874 Y98.662 E.77968
G1 X148.874 Y99.197 E.01682
G1 X130.803 Y81.126 E.80346
G1 X130.268 Y81.126 E.01682
G1 X148.874 Y99.732 E.82725
G1 X148.874 Y100.266 E.01679
G1 X129.734 Y81.126 E.85099
G1 X129.199 Y81.126 E.01682
G1 X148.874 Y100.801 E.87478
G1 X148.874 Y101.336 E.01682
M73 P3 R25
G1 X128.664 Y81.126 E.89857
G1 X128.129 Y81.126 E.01682
M73 Q3 S25
G1 X148.874 Y101.871 E.92235
G1 X148.874 Y102.405 E.01679
G1 X127.595 Y81.126 E.9461
G1 X127.06 Y81.126 E.01682
G1 X148.874 Y102.94 E.96988
G1 X148.874 Y103.475 E.01682
G1 X126.525 Y81.126 E.99367
G1 X125.991 Y81.126 E.01679
G1 X148.874 Y104.009 E1.01741
G1 X148.874 Y104.544 E.01682
M73 P4 R25
M73 Q4 S25
G1 X125.456 Y81.126 E1.0412
G1 X124.921 Y81.126 E.01682
G1 X148.874 Y105.079 E1.06499
G1 X148.874 Y105.614 E.01682
G1 X124.386 Y81.126 E1.08877
G1 X123.852 Y81.126 E.01679
G1 X148.874 Y106.148 E1.11252
G1 X148.874 Y106.683 E.01682
G1 X123.317 Y81.126 E1.1363
G1 X122.782 Y81.126 E.01682
G1 X148.874 Y107.218 E1.16009
G1 X148.874 Y107.752 E.01679
G1 X122.248 Y81.126 E1.18383
G1 X121.713 Y81.126 E.01682
G1 X148.874 Y108.287 E1.20762
G1 X148.874 Y108.822 E.01682
G1 X121.178 Y81.126 E1.23141
G1 X120.643 Y81.126 E.01682
M73 P5 R25
M73 Q5 S25
G1 X148.874 Y109.357 E1.25519
G1 X148.874 Y109.891 E.01679
G1 X120.109 Y81.126 E1.27894
G1 X119.574 Y81.126 E.01682
G1 X148.874 Y110.426 E1.30272
G1 X148.874 Y110.961 E.01682
G1 X119.039 Y81.126 E1.32651
G1 X118.505 Y81.126 E.01679
G1 X148.874 Y111.495 E1.35025
G1 X148.874 Y112.03 E.01682
G1 X117.97 Y81.126 E1.37404
G1 X117.435 Y81.126 E.01682
G1 X148.874 Y112.565 E1.39783
G1 X148.874 Y113.1 E.01682
M73 Q6 S25
G1 X116.9 Y81.126 E1.42161
G1 X116.366 Y81.126 E.01679
M73 P6 R25
G1 X148.874 Y113.634 E1.44536
G1 X148.874 Y114.169 E.01682
G1 X115.831 Y81.126 E1.46914
G1 X115.296 Y81.126 E.01682
G1 X148.874 Y114.704 E1.49293
G1 X148.874 Y115.238 E.01679
G1 X114.762 Y81.126 E1.51667
G1 X114.227 Y81.126 E.01682
G1 X148.874 Y115.773 E1.54046
G1 X148.874 Y116.308 E.01682
G1 X113.692 Y81.126 E1.56425
G1 X113.157 Y81.126 E.01682
M73 P7 R25
M73 Q7 S25
G1 X148.874 Y116.843 E1.58803
G1 X148.874 Y117.377 E.01679
M73 P7 R24
G1 X112.623 Y81.126 E1.61178
G1 X112.088 Y81.126 E.01682
M73 Q7 S24
G1 X148.874 Y117.912 E1.63556
G1 X148.874 Y118.447 E.01682
G1 X111.553 Y81.126 E1.65935
G1 X111.019 Y81.126 E.01679
G1 X148.874 Y118.981 E1.68309
G1 X148.874 Y119.516 E.01682
G1 X110.484 Y81.126 E1.70688
G1 X109.949 Y81.126 E.01682
M73 P8 R24
M73 Q8 S24
G1 X148.874 Y120.051 E1.73067
G1 X148.874 Y120.586 E.01682
G1 X109.414 Y81.126 E1.75445
G1 X108.88 Y81.126 E.01679
G1 X148.874 Y121.12 E1.7782
G1 X148.874 Y121.655 E.01682
G1 X108.345 Y81.126 E1.80198
G1 X107.81 Y81.126 E.01682
G1 X148.874 Y122.19 E1.82577
G1 X148.874 Y122.724 E.01679
G1 X107.276 Y81.126 E1.84951
G1 X106.741 Y81.126 E.01682
M73 P9 R24
M73 Q9 S24
G1 X148.874 Y123.259 E1.8733
G1 X148.874 Y123.794 E.01682
G1 X106.206 Y81.126 E1.89709
G1 X105.671 Y81.126 E.01682
G1 X148.874 Y124.329 E1.92087
G1 X148.874 Y124.863 E.01679
G1 X105.137 Y81.126 E1.94461
G1 X104.602 Y81.126 E.01682
G1 X148.874 Y125.398 E1.9684
G1 X148.874 Y125.933 E.01682
M73 P10 R24
M73 Q10 S24
G1 X104.067 Y81.126 E1.99219
G1 X103.533 Y81.126 E.01679
G1 X148.874 Y126.467 E2.01593
G1 X148.874 Y127.002 E.01682
G1 X102.998 Y81.126 E2.03972
G1 X102.463 Y81.126 E.01682
G1 X148.874 Y127.537 E2.0635
G1 X148.874 Y128.072 E.01682
M73 P10 R23
G1 X101.928 Y81.126 E2.08729
G1 X101.394 Y81.126 E.01679
M73 P11 R23
M73 Q11 S23
G1 X148.874 Y128.606 E2.11103
G1 X148.874 Y128.874 E.00843
G1 X148.606 Y128.874 E.00843
G1 X101.126 Y81.394 E2.11103
G1 X101.126 Y81.929 E.01682
G1 X148.071 Y128.874 E2.08725
G1 X147.537 Y128.874 E.01679
G1 X101.126 Y82.463 E2.0635
G1 X101.126 Y82.998 E.01682
G1 X147.002 Y128.874 E2.03972
G1 X146.467 Y128.874 E.01682
M73 P12 R23
M73 Q12 S23
G1 X101.126 Y83.533 E2.01593
G1 X101.126 Y84.067 E.01679
G1 X145.933 Y128.874 E1.99219
G1 X145.398 Y128.874 E.01682
G1 X101.126 Y84.602 E1.9684
G1 X101.126 Y85.137 E.01682
G1 X144.863 Y128.874 E1.94461
G1 X144.328 Y128.874 E.01682
G1 X101.126 Y85.672 E1.92083
G1 X101.126 Y86.206 E.01679
M73 P13 R23
M73 Q13 S23
G1 X143.794 Y128.874 E1.89709
G1 X143.259 Y128.874 E.01682
G1 X101.126 Y86.741 E1.8733
G1 X101.126 Y87.276 E.01682
G1 X142.724 Y128.874 E1.84951
G1 X142.19 Y128.874 E.01679
G1 X101.126 Y87.81 E1.82577
G1 X101.126 Y88.345 E.01682
G1 X141.655 Y128.874 E1.80198
G1 X141.12 Y128.874 E.01682
M73 P14 R23
M73 Q14 S23
G1 X101.126 Y88.88 E1.7782
G1 X101.126 Y89.415 E.01682
G1 X140.585 Y128.874 E1.75441
G1 X140.051 Y128.874 E.01679
G1 X101.126 Y89.949 E1.73067
G1 X101.126 Y90.484 E.01682
M73 P14 R22
G1 X139.516 Y128.874 E1.70688
G1 X138.981 Y128.874 E.01682
M73 Q14 S22
G1 X101.126 Y91.019 E1.68309
G1 X101.126 Y91.553 E.01679
G1 X138.447 Y128.874 E1.65935
G1 X137.912 Y128.874 E.01682
M73 P15 R22
M73 Q15 S22
G1 X101.126 Y92.088 E1.63556
G1 X101.126 Y92.623 E.01682
G1 X137.377 Y128.874 E1.61178
G1 X136.842 Y128.874 E.01682
G1 X101.126 Y93.158 E1.58799
G1 X101.126 Y93.692 E.01679
G1 X136.308 Y128.874 E1.56425
G1 X135.773 Y128.874 E.01682
G1 X101.126 Y94.227 E1.54046
G1 X101.126 Y94.762 E.01682
G1 X135.238 Y128.874 E1.51667
G1 X134.704 Y128.874 E.01679
M73 Q16 S22
G1 X101.126 Y95.296 E1.49293
G1 X101.126 Y95.831 E.01682
M73 P16 R22
G1 X134.169 Y128.874 E1.46914
G1 X133.634 Y128.874 E.01682
G1 X101.126 Y96.366 E1.44536
G1 X101.126 Y96.901 E.01682
G1 X133.099 Y128.874 E1.42157
G1 X132.565 Y128.874 E.01679
G1 X101.126 Y97.435 E1.39783
G1 X101.126 Y97.97 E.01682
G1 X132.03 Y128.874 E1.37404
G1 X131.495 Y128.874 E.01682
G1 X101.126 Y98.505 E1.35025
G1 X101.126 Y99.039 E.01679
G1 X130.961 Y128.874 E1.32651
G1 X130.426 Y128.874 E.01682
M73 P17 R22
M73 Q17 S22
G1 X101.126 Y99.574 E1.30272
G1 X101.126 Y100.109 E.01682
G1 X129.891 Y128.874 E1.27894
G1 X129.357 Y128.874 E.01679
G1 X101.126 Y100.643 E1.25519
G1 X101.126 Y101.178 E.01682
G1 X128.822 Y128.874 E1.23141
G1 X128.287 Y128.874 E.01682
G1 X101.126 Y101.713 E1.20762
G1 X101.126 Y102.248 E.01682
G1 X127.752 Y128.874 E1.18383
G1 X127.218 Y128.874 E.01679
G1 X101.126 Y102.782 E1.16009
G1 X101.126 Y103.317 E.01682
G1 X126.683 Y128.874 E1.1363
G1 X126.148 Y128.874 E.01682
M73 P18 R22
M73 Q18 S22
G1 X101.126 Y103.852 E1.11252
G1 X101.126 Y104.386 E.01679
G1 X125.614 Y128.874 E1.08877
G1 X125.079 Y128.874 E.01682
M73 P18 R21
G1 X101.126 Y104.921 E1.06499
G1 X101.126 Y105.456 E.01682
M73 Q18 S21
G1 X124.544 Y128.874 E1.0412
G1 X124.009 Y128.874 E.01682
G1 X101.126 Y105.991 E1.01741
G1 X101.126 Y106.525 E.01679
G1 X123.475 Y128.874 E.99367
G1 X122.94 Y128.874 E.01682
G1 X101.126 Y107.06 E.96988
G1 X101.126 Y107.595 E.01682
G1 X122.405 Y128.874 E.9461
G1 X121.871 Y128.874 E.01679
G1 X101.126 Y108.129 E.92235
G1 X101.126 Y108.664 E.01682
M73 P19 R21
M73 Q19 S21
G1 X121.336 Y128.874 E.89857
G1 X120.801 Y128.874 E.01682
G1 X101.126 Y109.199 E.87478
G1 X101.126 Y109.734 E.01682
G1 X120.266 Y128.874 E.85099
G1 X119.732 Y128.874 E.01679
G1 X101.126 Y110.268 E.82725
G1 X101.126 Y110.803 E.01682
G1 X119.197 Y128.874 E.80346
G1 X118.662 Y128.874 E.01682
G1 X101.126 Y111.338 E.77968
G1 X101.126 Y111.872 E.01679
G1 X118.128 Y128.874 E.75594
G1 X117.593 Y128.874 E.01682
G1 X101.126 Y112.407 E.73215
G1 X101.126 Y112.942 E.01682
G1 X117.058 Y128.874 E.70836
G1 X116.523 Y128.874 E.01682
G1 X101.126 Y113.477 E.68457
G1 X101.126 Y114.011 E.01679
G1 X115.989 Y128.874 E.66083
G1 X115.454 Y128.874 E.01682
G1 X101.126 Y114.546 E.63705
G1 X101.126 Y115.081 E.01682
G1 X114.919 Y128.874 E.61326
G1 X114.385 Y128.874 E.01679
M73 P20 R21
M73 Q20 S21
G1 X101.126 Y115.615 E.58952
G1 X101.126 Y116.15 E.01682
G1 X113.85 Y128.874 E.56573
G1 X113.315 Y128.874 E.01682
G1 X101.126 Y116.685 E.54194
G1 X101.126 Y117.22 E.01682
G1 X112.78 Y128.874 E.51815
G1 X112.246 Y128.874 E.01679
G1 X101.126 Y117.754 E.49441
G1 X101.126 Y118.289 E.01682
G1 X111.711 Y128.874 E.47063
G1 X111.176 Y128.874 E.01682
G1 X101.126 Y118.824 E.44684
G1 X101.126 Y119.358 E.01679
G1 X110.642 Y128.874 E.4231
G1 X110.107 Y128.874 E.01682
G1 X101.126 Y119.893 E.39931
G1 X101.126 Y120.428 E.01682
G1 X109.572 Y128.874 E.37552
G1 X109.037 Y128.874 E.01682
G1 X101.126 Y120.963 E.35174
G1 X101.126 Y121.497 E.01679
G1 X108.503 Y128.874 E.32799
G1 X107.968 Y128.874 E.01682
G1 X101.126 Y122.032 E.30421
G1 X101.126 Y122.567 E.01682
G1 X107.433 Y128.874 E.28042
G1 X106.899 Y128.874 E.01679
G1 X101.126 Y123.101 E.25668
G1 X101.126 Y123.636 E.01682
G1 X106.364 Y128.874 E.23289
G1 X105.829 Y128.874 E.01682
G1 X101.126 Y124.171 E.2091
G1 X101.126 Y124.706 E.01682
G1 X105.294 Y128.874 E.18532
G1 X104.76 Y128.874 E.01679
G1 X101.126 Y125.24 E.16157
G1 X101.126 Y125.775 E.01682
G1 X104.225 Y128.874 E.13779
G1 X103.69 Y128.874 E.01682
G1 X101.126 Y126.31 E.114
G1 X101.126 Y126.844 E.01679
G1 X103.156 Y128.874 E.09026
G1 X102.621 Y128.874 E.01682
G1 X101.126 Y127.379 E.06647
G1 X101.126 Y127.914 E.01682
G1 X102.086 Y128.874 E.04268
G1 X101.551 Y128.874 E.01682
G1 X100.957 Y128.279 E.02643
M204 S1000
; stop printing object GLASS TEST id:0 copy 0
M106 S84.15
;LAYER_CHANGE
;Z:0.35
;HEIGHT:0.15
;BEFORE_LAYER_CHANGE
G92 E0.0
;0.35


;WIPE_START
G1 F8640
G1 X101.551 Y128.874 E-.19413
G1 X102.086 Y128.874 E-.12353
G1 X101.126 Y127.914 E-.31348
G1 X101.126 Y127.379 E-.12353
G1 X101.265 Y127.518 E-.04533
;WIPE_END
G1 Z.6 F720
;AFTER_LAYER_CHANGE
;0.35
; printing object GLASS TEST id:0 copy 0
G1 X149.357 Y129.357 F10800
G1 Z.35 F720
G1 E.8 F2100
M204 S800
;TYPE:Perimeter
;WIDTH:0.449999
G1 F2700
G1 X100.643 Y129.357 E1.26928
G1 X100.643 Y80.643 E1.26928
G1 X149.357 Y80.643 E1.26928
M73 P21 R21
M73 Q21 S21
G1 X149.357 Y129.297 E1.26771
M204 S1000
G1 X149.775 Y129.775 F10800
M204 S800
;TYPE:External perimeter
G1 F1500
G1 X100.225 Y129.775 E1.29106
G1 X100.225 Y80.225 E1.29106
G1 X149.775 Y80.225 E1.29106
G1 X149.775 Y129.715 E1.2895
M204 S1000
G1 X149.389 Y129.671 F10800
;WIPE_START
G1 F8640
G1 X146.31 Y129.719 E-.8
;WIPE_END
G1 Z.75 F720
G1 X101.132 Y81.053 F10800
G1 Z.35 F720
G1 E.8 F2100
;TYPE:Solid infill
;WIDTH:0.55137
G1 F4800
G1 X101.086 Y81.007 E.00211
G1 X101.024 Y81.024 E.00208
G1 X101.007 Y81.086 E.00208
G1 X101.053 Y81.132 E.00211
G1 X101.115 Y81.115 E.00208
;WIDTH:0.449999
G1 X101.019 Y81.783 E.01758
G1 X101.783 Y81.019 E.02815
G1 X102.374 Y81.019 E.0154
G1 X101.019 Y82.374 E.04993
G1 X101.019 Y82.965 E.0154
G1 X102.965 Y81.019 E.07171
G1 X103.555 Y81.019 E.01537
G1 X101.019 Y83.555 E.09345
G1 X101.019 Y84.146 E.0154
G1 X104.146 Y81.019 E.11522
G1 X104.737 Y81.019 E.0154
G1 X101.019 Y84.737 E.137
G1 X101.019 Y85.328 E.0154
G1 X105.328 Y81.019 E.15878
G1 X105.919 Y81.019 E.0154
G1 X101.019 Y85.919 E.18056
G1 X101.019 Y86.51 E.0154
G1 X106.51 Y81.019 E.20233
G1 X107.101 Y81.019 E.0154
G1 X101.019 Y87.101 E.22411
G1 X101.019 Y87.691 E.01537
G1 X107.691 Y81.019 E.24585
G1 X108.282 Y81.019 E.0154
G1 X101.019 Y88.282 E.26763
G1 X101.019 Y88.873 E.0154
G1 X108.873 Y81.019 E.28941
G1 X109.464 Y81.019 E.0154
G1 X101.019 Y89.464 E.31118
G1 X101.019 Y90.055 E.0154
G1 X110.055 Y81.019 E.33296
G1 X110.646 Y81.019 E.0154
G1 X101.019 Y90.646 E.35474
G1 X101.019 Y91.237 E.0154
G1 X111.237 Y81.019 E.37652
G1 X111.828 Y81.019 E.0154
G1 X101.019 Y91.828 E.39829
G1 X101.019 Y92.418 E.01537
G1 X112.418 Y81.019 E.42003
G1 X113.009 Y81.019 E.0154
G1 X101.019 Y93.009 E.44181
G1 X101.019 Y93.6 E.0154
M73 P21 R20
G1 X113.6 Y81.019 E.46359
G1 X114.191 Y81.019 E.0154
M73 Q22 S21
G1 X101.019 Y94.191 E.48537
G1 X101.019 Y94.782 E.0154
M73 P22 R20
G1 X114.782 Y81.019 E.50714
G1 X115.373 Y81.019 E.0154
G1 X101.019 Y95.373 E.52892
G1 X101.019 Y95.964 E.0154
G1 X115.964 Y81.019 E.5507
G1 X116.555 Y81.019 E.0154
G1 X101.019 Y96.555 E.57248
G1 X101.019 Y97.145 E.01537
M73 Q22 S20
G1 X117.145 Y81.019 E.59422
G1 X117.736 Y81.019 E.0154
G1 X101.019 Y97.736 E.61599
G1 X101.019 Y98.327 E.0154
G1 X118.327 Y81.019 E.63777
G1 X118.918 Y81.019 E.0154
G1 X101.019 Y98.918 E.65955
G1 X101.019 Y99.509 E.0154
G1 X119.509 Y81.019 E.68133
