;FLAVOR:Marlin
;TIME:1826
;Filament used: 1.09431m
;Layer height: 0.2
;MINX:73.215
;MINY:90.779
;MINZ:0.3
;MAXX:98.812
;MAXY:116.377
;MAXZ:25.9
;Generated with Cura_SteamEngine 5.2.1
M82 ;absolute extrusion mode
;Profil Homepage: https://github.com/NilsRo/Cura_Anycubic_MegaS_Profile

;Slicer Information - (Support for OctoPrint Slicer Estimator)
;Slicer info:material_guid;0ff92885-617b-4144-a03c-9989872454bc
;Slicer info:material_id;generic_pla_175
;Slicer info:material_brand;Generic
;Slicer info:material_name;PLA
;Slicer info:filament_cost;[0.0]
;Slicer info:material_bed_temperature;60
;Slicer info:material_bed_temperature_layer_0;60
;Slicer info:material_print_temperature;200
;Slicer info:material_print_temperature_layer_0;205
;Slicer info:material_flow;100
;Slicer info:layer_height;0.2
;Slicer info:machine_nozzle_size;0.4
;Slicer info:wall_thickness;1.2000000000000002
;Slicer info:speed_print;50.0
;Slicer info:speed_topbottom;25.0
;Slicer info:travel_speed;100.0
;Slicer info:support;0
;Slicer info:retraction_speed;30
;Slicer info:retraction_amount;6
;Slicer info:layer_height;0.2
;Slicer info:infill_pattern;grid
;Slicer info:infill_sparse_density;25
;Slicer info:cool_fan_enabled;True
;Slicer info:cool_fan_speed;100
;Slicer info:sliced_at;Sat 30-12-2023 12:43:01
G21                                        ; metric values 
G90                                        ; absolute positioning 
M82                                        ; set extruder to absolute mode 
M107                                       ; start with the fan off 
M140 S60   ; Start heating the bed 
G4 S60                                     ; wait 1 minute 
M104 S205 ; start heating the hot end 
M190 S60   ; wait for bed 
M109 S205 ; wait for hotend 
M300 S1000 P500                            ; BEEP heating done 
G28 X0 Y10 Z0                              ; move X/Y to min endstops 
M420 S1                                    ; Enable leveling 
M420 Z2.0                                  ; Set leveling fading height to 2 mm 
G0 Z0.15                                   ; lift nozzle a bit 
G92 E0                                     ; zero the extruded length 
G1 X50 E20 F500                            ; Extrude 20mm of filament in a 5cm line. 
G92 E0                                     ; zero the extruded length again 
G1 E-2 F500                                ; Retract a little 
G1 X50 F500                                ; wipe away from the filament line
G1 X100 F9000                              ; Quickly wipe away from the filament line
G92 E0
G92 E0
G1 F1800 E-6
;LAYER_COUNT:130
M106 S76.5
M205 X10 Y10
G1 F480 Z0.375
;MESH:triangle_3d.3mf
G0 F6000 X74.05 Y91.607 Z0.375
M205 X8 Y8
;TYPE:WALL-INNER
G1 F480 Z0.3
G1 F1800 E0
G1 F769.2 X74.132 Y92.815 E0.09423
G1 F839.2 X74.504 Y92.069 E0.15371
G1 F827.6 X75.056 Y91.705 E0.20154
G1 F759.5 X74.05 Y91.607 E0.28121
M205 X10 Y10
G1 F1800 E-5.71879
G1 F480 Z0.375
G0 F6000 X97.522 Y92.069 Z0.375
M205 X8 Y8
G1 F480 Z0.3
G1 F1800 E0.28121
G1 F837.7 X97.894 Y92.815 E0.34079
G1 X97.957 Y91.889 E0.40712
G1 F887.2 X97.957 Y91.617 E0.42547
G1 F794.7 X96.776 Y91.697 E0.51465
G1 F837.7 X97.522 Y92.069 E0.57422
M205 X10 Y10
G1 F1800 E-5.42578
G1 F480 Z0.375
G0 F6000 X96.97 Y115.451 Z0.375
M205 X8 Y8
G1 F480 Z0.3
G1 F1800 E0.57422
G1 F757.1 X97.984 Y115.55 E0.65479
G1 X97.886 Y114.535 E0.73542
G1 F826.2 X97.522 Y115.087 E0.78334
G1 X96.97 Y115.451 E0.83125
M205 X10 Y10
G1 F1800 E-5.16875
G1 F480 Z0.375
G0 F6000 X74.042 Y115.541 Z0.375
M205 X8 Y8
G1 F480 Z0.3
G1 F1800 E0.83125
G1 F769.2 X75.25 Y115.459 E0.92549
G1 F839.2 X74.504 Y115.087 E0.98496
G1 F827.6 X74.14 Y114.535 E1.03279
G1 F759.5 X74.042 Y115.541 E1.11247
M205 X10 Y10
G1 F1800 E-4.88753
G1 F480 Z0.375
G0 F6000 X73.615 Y91.18 Z0.375
M205 X8 Y8
G1 F480 Z0.3
G1 F1800 E1.11247
G1 F1200 X73.615 Y115.976 E2.34954
G1 X98.412 Y115.977 E3.58667
G1 X98.412 Y91.889 E4.78843
G1 X98.412 Y91.179 E4.82385
G1 X73.615 Y91.18 E6.06098
M205 X10 Y10
G0 F6000 X73.215 Y90.78
M205 X8 Y8
;TYPE:WALL-OUTER
G1 F1200 X73.215 Y116.376 E7.33797
G1 X98.812 Y116.377 E8.61501
G1 X98.812 Y91.889 E9.83672
G1 X98.812 Y90.779 E9.89209
G1 X73.215 Y90.78 E11.16913
M205 X10 Y10
G0 F6000 X73.215 Y90.98
G1 F1800 E5.16913
G1 F480 Z0.375
G0 F6000 X97.201 Y92.39 Z0.375
M205 X8 Y8
;TYPE:WALL-INNER
G1 F480 Z0.3
G1 F1800 E11.16913
G1 F1200 X97.376 Y92.815 E11.19206
G1 X97.376 Y114.43 E12.27044
G1 X97.201 Y114.766 E12.28934
G1 X96.88 Y114.933 E12.30739
G1 X96.776 Y114.941 E12.3126
G1 X75.25 Y114.941 E13.38653
G1 X74.825 Y114.766 E13.40946
G1 X74.65 Y114.43 E13.42837
G1 X74.65 Y92.815 E14.50674
G1 X74.825 Y92.39 E14.52967
G1 X75.161 Y92.215 E14.54857
G1 X96.776 Y92.215 E15.62695
G1 X97.201 Y92.39 E15.64988
M205 X10 Y10
G0 F6000 X96.776 Y91.697
M205 X8 Y8
G1 F754.7 X75.25 Y91.697 E17.35744
G1 F745.3 X75.056 Y91.705 E17.37304
M205 X10 Y10
G0 F6000 X75.215 Y92.617
M205 X8 Y8
;TYPE:WALL-OUTER
G1 F1200 X96.776 Y92.615 E18.44872
G1 X96.918 Y92.673 E18.45637
G1 X96.976 Y92.815 E18.46402
G1 X96.974 Y114.376 E19.53971
G1 X96.811 Y114.539 E19.55121
G1 X75.25 Y114.541 E20.62689
G1 X75.052 Y114.376 E20.63975
G1 X75.05 Y92.815 E21.71543
G1 X75.215 Y92.617 E21.72829
M205 X10 Y10
G0 F6000 X75.415 Y92.617
G0 X74.132 Y92.815
M205 X8 Y8
;TYPE:WALL-INNER
G1 F754.7 X74.132 Y114.341 E23.43585
G1 F745.3 X74.14 Y114.535 E23.45144
M205 X10 Y10
G0 F6000 X75.25 Y115.459
M205 X8 Y8
G1 F754.7 X96.776 Y115.459 E25.159
G1 F745.3 X96.97 Y115.451 E25.1746
M205 X10 Y10
G0 F6000 X97.886 Y114.535
M205 X8 Y8
G1 F745.3 X97.894 Y114.341 E25.19019
M104 S200
G1 F754.7 X97.894 Y92.815 E26.89775
M205 X10 Y10
G1 F1800 E20.89775
G1 F480 Z0.375
;MESH:NONMESH
G0 F6000 X74.175 Y91.732 Z0.375
;TIME_ELAPSED:36.447704
;LAYER:1
M106 S165.8
;MESH:triangle_3d.3mf
G0 X74.175 Y91.732 Z0.575
M205 X8 Y8
;TYPE:WALL-INNER
G1 F480 Z0.5
G1 F1800 E26.89775
G1 F865.4 X74.257 Y92.94 E26.96058
G1 F944.1 X74.629 Y92.194 E27.00022
G1 F931 X75.181 Y91.83 E27.03211
G1 F854.4 X74.175 Y91.732 E27.08523
M205 X10 Y10
G1 F1800 E21.08523
G1 F480 Z0.575
G0 F6000 X97.397 Y92.194 Z0.575
M205 X8 Y8
G1 F480 Z0.5
G1 F1800 E27.08523
G1 F942.4 X97.769 Y92.94 E27.12495
G1 X97.832 Y92.014 E27.16917
G1 F998.2 X97.832 Y91.742 E27.1814
G1 F894 X96.651 Y91.822 E27.24085
G1 F942.4 X97.397 Y92.194 E27.28057
M205 X10 Y10
G1 F1800 E21.28057
G1 F480 Z0.575
G0 F6000 X96.845 Y115.326 Z0.575
M205 X8 Y8
G1 F480 Z0.5
G1 F1800 E27.28057
G1 F851.7 X97.859 Y115.425 E27.33428
G1 X97.761 Y114.41 E27.38804
G1 F929.4 X97.397 Y114.962 E27.41998
G1 X96.845 Y115.326 E27.45192
M205 X10 Y10
G1 F1800 E21.45192
G1 F480 Z0.575
G0 F6000 X74.167 Y115.416 Z0.575
M205 X8 Y8
G1 F480 Z0.5
G1 F1800 E27.45192
G1 F865.4 X75.375 Y115.334 E27.51475
G1 F944.1 X74.629 Y114.962 E27.55439
G1 F931 X74.265 Y114.41 E27.58628
G1 F854.4 X74.167 Y115.416 E27.6394
M205 X10 Y10
G1 F1800 E21.6394
G1 F480 Z0.575
G0 F6000 X73.74 Y91.305 Z0.575
M205 X8 Y8
G1 F480 Z0.5
G1 F1800 E27.6394
G1 F1350 X73.74 Y115.851 E28.4558
G1 X98.287 Y115.852 E29.27224
G1 X98.287 Y92.014 E30.06509
G1 X98.287 Y91.304 E30.08871
G1 X73.74 Y91.305 E30.90514
M205 X10 Y10
G0 F6000 X73.34 Y90.905
M205 X8 Y8
;TYPE:WALL-OUTER
G1 F1350 X73.34 Y116.251 E31.74816
G1 X98.687 Y116.252 E32.5912
G1 X98.687 Y92.014 E33.39736
G1 X98.687 Y90.904 E33.43428
G1 X73.34 Y90.905 E34.27732
M205 X10 Y10
G0 F6000 X73.34 Y91.105
G1 F1800 E28.27732
G1 F480 Z0.575
G0 F6000 X97.076 Y92.515 Z0.575
M205 X8 Y8
;TYPE:WALL-INNER
G1 F480 Z0.5
G1 F1800 E34.27732
G1 F1350 X97.251 Y92.94 E34.29261
G1 X97.251 Y114.305 E35.00321
G1 X97.076 Y114.641 E35.01581
G1 X96.74 Y114.816 E35.02841
G1 X75.375 Y114.816 E35.73902
G1 X74.95 Y114.641 E35.7543
G1 X74.775 Y114.305 E35.7669
G1 X74.775 Y92.94 E36.47751
G1 X74.95 Y92.515 E36.49279
G1 X75.286 Y92.34 E36.50539
G1 X96.651 Y92.34 E37.216
G1 X97.076 Y92.515 E37.23128
M205 X10 Y10
G0 F6000 X96.651 Y91.822
M205 X8 Y8
G1 F849.1 X75.375 Y91.822 E38.35644
G1 F838.5 X75.181 Y91.83 E38.36683
M205 X10 Y10
G0 F6000 X75.233 Y92.798
M205 X8 Y8
;TYPE:WALL-OUTER
G1 F1350 X75.34 Y92.742 E38.37085
G1 X96.651 Y92.74 E39.07966
G1 X96.793 Y92.798 E39.08476
G1 X96.851 Y92.94 E39.08986
G1 X96.849 Y114.251 E39.79867
G1 X96.686 Y114.414 E39.80633
G1 X75.375 Y114.416 E40.51514
G1 X75.177 Y114.251 E40.52371
G1 X75.175 Y92.94 E41.23252
G1 X75.233 Y92.798 E41.23762
M205 X10 Y10
G0 F6000 X75.34 Y92.742
G0 X75.42 Y92.742
G0 X74.257 Y92.94
M205 X8 Y8
;TYPE:WALL-INNER
G1 F849.1 X74.257 Y114.216 E42.36277
G1 F838.5 X74.265 Y114.41 E42.37317
M205 X10 Y10
G0 F6000 X75.375 Y115.334
M205 X8 Y8
G1 F849.1 X96.651 Y115.334 E43.49832
G1 F838.5 X96.845 Y115.326 E43.50872
M205 X10 Y10
G0 F6000 X97.761 Y114.41
M205 X8 Y8
G1 F838.5 X97.769 Y114.216 E43.51912
G1 F849.1 X97.769 Y92.94 E44.64427
M205 X10 Y10
G1 F1800 E38.64427
G1 F480 Z0.575
;MESH:NONMESH
G0 F6000 X74.275 Y91.832 Z0.575
;TIME_ELAPSED:63.917469
;LAYER:2
M106 S255
;MESH:triangle_3d.3mf
G0 X74.275 Y91.832 Z0.775
M205 X8 Y8
;TYPE:WALL-INNER
G1 F480 Z0.7
G1 F1800 E44.64427
G1 F961.5 X74.357 Y93.04 E44.70709
G1 F1049 X74.729 Y92.294 E44.74674
G1 F1034.5 X75.281 Y91.93 E44.77863
G1 F949.4 X74.275 Y91.832 E44.83174
M205 X10 Y10
G1 F1800 E38.83174
G1 F480 Z0.775
G0 F6000 X97.297 Y92.294 Z0.775
M205 X8 Y8
G1 F480 Z0.7
G1 F1800 E44.83174
G1 F1047.1 X97.669 Y93.04 E44.87146
G1 X97.732 Y92.114 E44.91568
G1 F1109.1 X97.732 Y91.842 E44.92792
G1 F993.4 X96.551 Y91.922 E44.98737
G1 F1047.1 X97.297 Y92.294 E45.02708
M205 X10 Y10
G1 F1800 E39.02708
G1 F480 Z0.775
G0 F6000 X96.745 Y115.226 Z0.775
M205 X8 Y8
G1 F480 Z0.7
G1 F1800 E45.02708
G1 F946.4 X97.759 Y115.325 E45.08079
G1 X97.661 Y114.31 E45.13455
G1 F1032.7 X97.297 Y114.862 E45.16649
G1 X96.745 Y115.226 E45.19844
M205 X10 Y10
G1 F1800 E39.19844
G1 F480 Z0.775
G0 F6000 X74.267 Y115.316 Z0.775
M205 X8 Y8
G1 F480 Z0.7
G1 F1800 E45.19844
G1 F961.5 X75.475 Y115.234 E45.26126
G1 F1049 X74.729 Y114.862 E45.30091
G1 F1034.5 X74.365 Y114.31 E45.3328
G1 F949.4 X74.267 Y115.316 E45.38591
M205 X10 Y10
G1 F1800 E39.38591
G1 F480 Z0.775
G0 F6000 X73.84 Y91.405 Z0.775
M205 X8 Y8
G1 F480 Z0.7
G1 F1800 E45.38591
G1 F1500 X73.84 Y115.751 E46.19566
G1 X98.187 Y115.752 E47.00545
G1 X98.187 Y92.114 E47.79165
G1 X98.187 Y91.404 E47.81527
G1 X73.84 Y91.405 E48.62505
M205 X10 Y10
G0 F6000 X73.44 Y91.005
M205 X8 Y8
;TYPE:WALL-OUTER
G1 F1500 X73.44 Y116.151 E49.46141
G1 X98.587 Y116.152 E50.2978
G1 X98.587 Y92.114 E51.09731
G1 X98.587 Y91.004 E51.13423
G1 X73.44 Y91.005 E51.97062
M205 X10 Y10
G0 F6000 X73.44 Y91.205
G1 F1800 E45.97062
G1 F480 Z0.775
G0 F6000 X96.976 Y92.615 Z0.775
M205 X8 Y8
;TYPE:WALL-INNER
G1 F480 Z0.7
G1 F1800 E51.97062
G1 F1500 X97.151 Y93.04 E51.98591
G1 X97.151 Y114.205 E52.68986
G1 X96.976 Y114.541 E52.70246
G1 X96.655 Y114.708 E52.71449
G1 X96.551 Y114.716 E52.71796
G1 X75.475 Y114.716 E53.41895
G1 X75.05 Y114.541 E53.43424
G1 X74.875 Y114.205 E53.44684
G1 X74.875 Y93.04 E54.15079
G1 X75.05 Y92.615 E54.16608
G1 X75.386 Y92.44 E54.17868
G1 X96.551 Y92.44 E54.88263
G1 X96.976 Y92.615 E54.89792
M205 X10 Y10
G0 F6000 X96.551 Y91.922
M205 X8 Y8
G1 F943.4 X75.475 Y91.922 E56.01249
G1 F931.7 X75.281 Y91.93 E56.02289
M205 X10 Y10
G0 F6000 X75.44 Y92.842
M205 X8 Y8
;TYPE:WALL-OUTER
G1 F1500 X96.551 Y92.84 E56.72504
G1 X96.693 Y92.898 E56.73015
G1 X96.751 Y93.04 E56.73525
G1 X96.749 Y114.151 E57.4374
G1 X96.586 Y114.314 E57.44507
G1 X75.475 Y114.316 E58.14722
G1 X75.277 Y114.151 E58.1558
G1 X75.275 Y93.04 E58.85795
G1 X75.44 Y92.842 E58.86652
M205 X10 Y10
G0 F6000 X75.64 Y92.842
G0 X74.357 Y93.04
M205 X8 Y8
;TYPE:WALL-INNER
G1 F943.4 X74.357 Y114.116 E59.9811
G1 F931.7 X74.365 Y114.31 E59.9915
M205 X10 Y10
G0 F6000 X75.475 Y115.234
M205 X8 Y8
G1 F943.4 X96.551 Y115.234 E61.10607
G1 F931.7 X96.745 Y115.226 E61.11647
M205 X10 Y10
G0 F6000 X97.661 Y114.31
M205 X8 Y8
G1 F931.7 X97.669 Y114.116 E61.12687
G1 F943.4 X97.669 Y93.04 E62.24144
M205 X10 Y10
G1 F1800 E56.24144
G1 F480 Z0.775
;MESH:NONMESH
G0 F6000 X74.375 Y91.932 Z0.775
;TIME_ELAPSED:88.855677
;LAYER:3
;MESH:triangle_3d.3mf
G0 X74.375 Y91.932 Z0.975
M205 X8 Y8
;TYPE:WALL-INNER
G1 F480 Z0.9
G1 F1800 E62.24144
G1 F961.5 X74.457 Y93.14 E62.30426
G1 F1049 X74.829 Y92.394 E62.34391
G1 F1034.5 X75.381 Y92.03 E62.3758
G1 F949.4 X74.375 Y91.932 E62.42892
M205 X10 Y10
G1 F1800 E56.42892
G1 F480 Z0.975
G0 F6000 X97.197 Y92.394 Z0.975
M205 X8 Y8
G1 F480 Z0.9
G1 F1800 E62.42892
G1 F1047.1 X97.569 Y93.14 E62.46863
G1 X97.632 Y92.214 E62.51285
G1 F1109.1 X97.632 Y91.942 E62.52509
G1 F993.4 X96.451 Y92.022 E62.58454
G1 F1047.1 X97.197 Y92.394 E62.62426
M205 X10 Y10
G1 F1800 E56.62426
G1 F480 Z0.975
G0 F6000 X96.645 Y115.126 Z0.975
M205 X8 Y8
G1 F480 Z0.9
G1 F1800 E62.62426
G1 F946.4 X97.659 Y115.225 E62.67797
G1 X97.561 Y114.21 E62.73172
G1 F1032.7 X97.197 Y114.762 E62.76367
G1 X96.645 Y115.126 E62.79561
M205 X10 Y10
G1 F1800 E56.79561
G1 F480 Z0.975
G0 F6000 X74.367 Y115.216 Z0.975
M205 X8 Y8
G1 F480 Z0.9
G1 F1800 E62.79561
G1 F961.5 X75.575 Y115.134 E62.85843
G1 F1049 X74.829 Y114.762 E62.89808
G1 F1034.5 X74.465 Y114.21 E62.92997
G1 F949.4 X74.367 Y115.216 E62.98308
M205 X10 Y10
G1 F1800 E56.98308
G1 F480 Z0.975
G0 F6000 X73.94 Y91.505 Z0.975
M205 X8 Y8
G1 F480 Z0.9
G1 F1800 E62.98308
G1 F1500 X73.94 Y115.651 E63.78618
G1 X98.087 Y115.652 E64.58932
G1 X98.087 Y92.214 E65.36887
G1 X98.087 Y91.504 E65.39248
G1 X73.94 Y91.505 E66.19561
M205 X10 Y10
G0 F6000 X73.54 Y91.105
M205 X8 Y8
;TYPE:WALL-OUTER
G1 F1500 X73.54 Y116.051 E67.02532
G1 X98.487 Y116.052 E67.85506
G1 X98.487 Y92.214 E68.64792
G1 X98.487 Y91.104 E68.68484
G1 X73.54 Y91.105 E69.51458
M205 X10 Y10
G0 F6000 X73.54 Y91.305
G1 F1800 E63.51458
G1 F480 Z0.975
G0 F6000 X96.876 Y92.715 Z0.975
M205 X8 Y8
;TYPE:WALL-INNER
G1 F480 Z0.9
G1 F1800 E69.51458
G1 F1500 X97.051 Y93.14 E69.52986
G1 X97.051 Y114.105 E70.22716
G1 X96.876 Y114.441 E70.23976
G1 X96.555 Y114.608 E70.2518
G1 X96.451 Y114.616 E70.25527
G1 X75.575 Y114.616 E70.94961
G1 X75.15 Y114.441 E70.96489
G1 X74.975 Y114.105 E70.97749
G1 X74.975 Y93.14 E71.67479
G1 X75.15 Y92.715 E71.69008
G1 X75.486 Y92.54 E71.70268
G1 X96.451 Y92.54 E72.39998
G1 X96.876 Y92.715 E72.41527
M205 X10 Y10
G0 F6000 X96.451 Y92.022
M205 X8 Y8
G1 F943.4 X75.575 Y92.022 E73.51926
G1 F931.7 X75.381 Y92.03 E73.52966
M205 X10 Y10
G0 F6000 X75.54 Y92.942
M205 X8 Y8
;TYPE:WALL-OUTER
G1 F1500 X96.451 Y92.94 E74.22516
G1 X96.593 Y92.998 E74.23027
G1 X96.651 Y93.14 E74.23537
G1 X96.649 Y114.051 E74.93087
G1 X96.486 Y114.214 E74.93854
G1 X75.575 Y114.216 E75.63404
G1 X75.377 Y114.051 E75.64261
G1 X75.375 Y93.14 E76.33811
G1 X75.54 Y92.942 E76.34669
M205 X10 Y10
G0 F6000 X75.74 Y92.942
G0 X74.457 Y93.14
M205 X8 Y8
;TYPE:WALL-INNER
G1 F943.4 X74.457 Y114.016 E77.45069
G1 F931.7 X74.465 Y114.21 E77.46108
M205 X10 Y10
G0 F6000 X75.575 Y115.134
M205 X8 Y8
G1 F943.4 X96.451 Y115.134 E78.56508
G1 F931.7 X96.645 Y115.126 E78.57548
M205 X10 Y10
G0 F6000 X97.561 Y114.21
M205 X8 Y8
G1 F931.7 X97.569 Y114.016 E78.58588
G1 F943.4 X97.569 Y93.14 E79.68987
M205 X10 Y10
G1 F1800 E73.68987
G1 F480 Z0.975
;MESH:NONMESH
G0 F6000 X74.475 Y92.032 Z0.975
;TIME_ELAPSED:113.603012
;LAYER:4
;MESH:triangle_3d.3mf
G0 X74.475 Y92.032 Z1.175
M205 X8 Y8
;TYPE:WALL-INNER
G1 F480 Z1.1
G1 F1800 E79.68987
G1 F961.5 X74.557 Y93.24 E79.7527
G1 F1049 X74.929 Y92.494 E79.79234
G1 F1034.5 X75.481 Y92.13 E79.82423
G1 F949.4 X74.475 Y92.032 E79.87735
M205 X10 Y10
G1 F1800 E73.87735
G1 F480 Z1.175
G0 F6000 X97.097 Y92.494 Z1.175
M205 X8 Y8
G1 F480 Z1.1
G1 F1800 E79.87735
G1 F1047.1 X97.469 Y93.24 E79.91707
G1 X97.532 Y92.314 E79.96129
G1 F1109.1 X97.532 Y92.042 E79.97352
G1 F993.4 X96.351 Y92.122 E80.03297
G1 F1047.1 X97.097 Y92.494 E80.07269
M205 X10 Y10
G1 F1800 E74.07269
G1 F480 Z1.175
G0 F6000 X96.545 Y115.026 Z1.175
M205 X8 Y8
G1 F480 Z1.1
G1 F1800 E80.07269
G1 F946.4 X97.559 Y115.125 E80.1264
G1 X97.461 Y114.11 E80.18016
G1 F1032.7 X97.097 Y114.662 E80.2121
G1 X96.545 Y115.026 E80.24404
M205 X10 Y10
G1 F1800 E74.24404
G1 F480 Z1.175
G0 F6000 X74.467 Y115.116 Z1.175
M205 X8 Y8
G1 F480 Z1.1
G1 F1800 E80.24404
G1 F961.5 X75.675 Y115.034 E80.30687
G1 F1049 X74.929 Y114.662 E80.34651
